X:208
T: Osterlied
N: A0562
O: Europa, Mitteleuropa, Deutschland
N: Constanzer Gsgb 1600 fol. 76.
R: Romanze, Ballade, Lied, religioeses Lied
M: 4/2
L: 1/4
K: F
F4 | F2c2A2F2 | G2B2A4
c4B2A2 | G4F4
B4B2B2 | B2G2A2B2 | c4
B2A2 | G4F4
c4d3c | B2A2G4 | F8 | z4

